X: 258
T: Doctor, Doctor
B: canberra pickers and fiddlers
B: tunes
M:4/4
L:1/8
R: reel
Q: 1/4=100
K:D
V:1 
%
D2FF D2FF|GAB2 A4|d2f2 ffed|cABc dBAF|
D2FF D2FF|GAB2 A4|d2f2 ffed||cABc d2 ef||
gef2e3 f|gefd e3f|gefd e3d|cABc A3f|
gef2e3 f|gefd e3f|gefd e2d2|cABc AGFE||
% abcbook-tune_id 63ae8f1c204a5d4e8c2ff20b
% abcbook-tune_composer_id 
% abcbook-link-0 https://www.youtube.com/watch?v=v8VkMkCpXuk
% abcbook-boost 0
% abcbook-difficulty 0
% abcbook-tags canberra pickers and fiddlers,old time tunes,steve ryan,© free
% abcbook-tablature 
% abcbook-transpose 
% abcbook-tuning ADAE
% abcbook-lastupdated 1675313192079
% abcbook-src-url https://tunebook.net/scrape/tunes.abc
% abcbook-soundfonts 
% abcbook-repeats 1


